X:1
T:INVENTIONEN
T:Inventio 1 BWV 772 (Earlier version)
T:Johann Sebastian Bach (1685 - 1750)
C:Johann Sebastian Bach (1685 - 1750)
%%score { 1 | 2 }
L:1/8
Q:1/4=80
M:4/4
K:C
V:1 treble nm="Piano" snm="Pno."
V:2 bass 
V:1
 z/ (!1!C/D/E/ F/D/E/C/ G)(!2!c P!32!Bc | d/G/A/B/ c/A/B/G/ !5!d)(!2!gP!32!fg | %2
 !1!e/!3!a/g/f/ !2!e/g/f/a/ g/f/e/!1!d/ !2!c/e/d/f/ | e/d/c/B/ !2!A/c/B/d/ c/B/A/G/ !2!^F/A/G/B/ | %4
 !3!A)!tenuto!D (M!3!c>!4!d !2!B/A/!3!G/!2!^F/ E/G/F/A/ | %5
 !1!G/B/A/c/ !1!B/d/c/e/ d/B/4c/4d/.g/) (P!32!B!1!A/!2!G/ | !1!G) z z2 z/ (!1!G/A/B/ c/A/B/G/) | %7
 !tenuto!P!32!^F z z2 z/ (!1!A/B/c/ d/B/c/A/ | !tenuto!B) z z2 z/ (!4!d/c/B/ A/c/B/d/ | %9
 !tenuto!c) z z2 z/ (!4!e/d/c/ B/d/^c/e/ | d)(!2!^c de f)(A =B!3!c | %11
 !5!d)(!2!^F ^G!1!A !2!B=c !5!d2- | d/E/^F/^G/ A/F/G/E/ e/d/c/e/ d/c/B/d/ | %13
 !1!c/!4!a/^g/b/ a/!1!e/!4!=f/!2!d/ !1!^G/!4!f/e/d/) (P!32!cB/!2!A/ | %14
 !1!A/a/=g/f/ e/g/f/a/ !>!g4-) | g/(e/f/g/ a/f/g/e/ !>!!3!f4-) | f/(!4!g/f/e/ d/f/e/g/ !>!f4-) | %17
 f/(d/e/f/ g/e/f/d/ !>!!3!e4-) | e/(c/d/e/ !4!f/d/!3!e/!1!c/ !2!d/!1!e/f/g/ a/f/g/e/ | %19
 !2!f/!1!g/a/=b/ c'/a/b/g/ !tenuto!!4!c')!tenuto!!1!g (P!32!e!1!d/!3!c/ | %20
 !5!c/_B/A/G/ F/A/G/B/ A/=B/c/!2!E/ D/c/!2!F/!4!B/ | !fermata!!
![EGc]8) |] %22
V:2
 z4 z/ (!4!C,/D,/E,/ F,/D,/E,/C,/ | !tenuto!G,)!tenuto!G,, z2 z/ (!4!G,/A,/B,/ C/A,/B,/G,/ | %2
 C)(!4!B,CD E)(!4!G, A,B, | C)(!4!E, ^F,G, A,!2!B, C2-) | %4
 C/(!4!D,/E,/^F,/ G,/E,/F,/D,/ G,)(!4!B,, C,D, | %5
 E,!2!^F, G,!2!E, !4!B,,>!3!C, !tenuto!!1!D,)!tenuto!D,, | %6
 z/ (!4!G,,/A,,/B,,/ C,/A,,/B,,/G,,/ !1!D,)(!2!G, ^F,G, | %7
 A,/!4!D,/E,/^F,/ G,/E,/F,/D,/ A,)(!2!DCD | G,/[K:treble]G/=F/E/ D/F/E/G/ F)(!3!EFD | %9
 E/A/G/F/ E/G/F/A/ G)(!3!F G!5!E | !4!F/!2!_B/!1!A/G/ F/A/!4!G/B/ !3!A/!1!G/F/E/ D/F/E/G/ | %11
 !2!F/!1!E/D/=C/ =B,/D/C/E/ D/!1!C/B,/A,/ ^G,/B,/A,/C/ | %12
[K:bass] B,)!tenuto!E, (M!12!D>E C/!1!B,/A,/=G,/ ^F,/A,/^G,/B,/ | %13
 !4!A,/C/!3!B,/D/ !4!C/E/!3!D/=F/ !tenuto!!2!E)!tenuto!A, !tenuto!!1!E!tenuto!E, | %14
 !tenuto!!1!A,!tenuto!A,, z2 z/ (!1!E/D/C/ B,/D/^C/E/ | !>!!21!D4-) D/(!4!A,/B,/=C/ D/B,/C/A,/ | %16
 !>!B,4-) B,/(D/C/B,/ A,/C/B,/D/ | !>!!21!C4-) C/(!4!G,/A,/_B,/ C/A,/B,/G,/ | %18
 A,)(_B,A,G, F,)(D CB, | A,)(F ED !1!E/!4!D,/E,/F,/ G,/E,/F,/D,/ | %20
 !3!E,)(!5!C,D,E, F,/D,/E,/F,/ !tenuto!G,)!tenuto!!3!G,, | !fermata!C,,8 |] %22

